teeny/outline/spotify.svg

<svg width="15" height="15" viewBox="0 0 15 15" fill="none" xmlns="http://www.w3.org/2000/svg">
<path d="M14 7.5C14 11.0897 11.0903 14 7.5 14V15C11.6426 15 15 11.6419 15 7.5H14ZM7.5 14C3.90974 14 1 11.0897 1 7.5H0C0 11.6419 3.35739 15 7.5 15V14ZM1 7.5C1 3.91029 3.90974 1 7.5 1V0C3.35739 0 0 3.35806 0 7.5H1ZM7.5 1C11.0903 1 14 3.91029 14 7.5H15C15 3.35806 11.6426 0 7.5 0V1ZM3.6619 10.1162C4.64825 9.87576 5.86144 9.77072 7.05416 9.88791C8.25009 10.0054 9.38823 10.3424 10.2559 10.9525L10.8311 10.1345C9.77768 9.39382 8.45578 9.02081 7.15195 8.8927C5.84491 8.76428 4.51862 8.87807 3.42506 9.14466L3.6619 10.1162ZM3.32624 7.99237C6.772 7.38275 9.17433 7.69462 11.1649 9.12359L11.7481 8.31123C9.44985 6.66142 6.73182 6.37433 3.15202 7.00766L3.32624 7.99237ZM3.10135 5.84102C4.45435 5.36298 6.10442 5.1645 7.72549 5.29726C9.34836 5.43016 10.9042 5.8917 12.0886 6.69623L12.6505 5.86901C11.2863 4.94241 9.55125 4.44343 7.80712 4.30059C6.06118 4.15761 4.26817 4.36818 2.76821 4.89814L3.10135 5.84102Z" fill="black"/>
</svg>

<svg viewBox="0 0 15 15" xmlns="http://www.w3.org/2000/svg"><path d="M14 7.5c0 3.58-2.91 6.5-6.5 6.5v1c4.14 0 7.5-3.36 7.5-7.5h-1ZM7.5 14C3.9 14 1 11.08 1 7.5H0C0 11.64 3.35 15 7.5 15v-1ZM1 7.5C1 3.91 3.9 1 7.5 1V0C3.35 0 0 3.35 0 7.5h1ZM7.5 1C11.09 1 14 3.91 14 7.5h1C15 3.35 11.64 0 7.5 0v1Zm-3.84 9.11c.98-.25 2.19-.35 3.39-.23 1.19.11 2.33.45 3.2 1.06l.57-.82C9.76 9.37 8.44 9 7.14 8.87c-1.31-.13-2.64-.02-3.73.25l.23.97Zm-.34-2.13c3.44-.61 5.84-.3 7.83 1.13l.58-.82c-2.3-1.65-5.02-1.94-8.6-1.31l.17.98Zm-.23-2.16c1.35-.48 3-.68 4.62-.55s3.17.59 4.36 1.39l.56-.83c-1.37-.93-3.1-1.43-4.85-1.57 -1.75-.15-3.54.06-5.04.59l.33.94Z"/></svg>
